Numix-Light/16/status/indicator-keyboard-Cs-6.svg

<?xml version="1.0" encoding="UTF-8" standalone="no"?>
<svg
   xmlns:dc="http://purl.org/dc/elements/1.1/"
   xmlns:cc="http://creativecommons.org/ns#"
   xmlns:rdf="http://www.w3.org/1999/02/22-rdf-syntax-ns#"
   xmlns:svg="http://www.w3.org/2000/svg"
   xmlns="http://www.w3.org/2000/svg"
   xmlns:sodipodi="http://sodipodi.sourceforge.net/DTD/sodipodi-0.dtd"
   xmlns:inkscape="http://www.inkscape.org/namespaces/inkscape"
   viewBox="0 0 16 16"
   id="svg2"
   version="1.1"
   inkscape:version="0.91 r13725"
   sodipodi:docname="indicator-keyboard-Cs-6.svg">
  <metadata
     id="metadata14">
    <rdf:RDF>
      <cc:Work
         rdf:about="">
        <dc:format>image/svg+xml</dc:format>
        <dc:type
           rdf:resource="http://purl.org/dc/dcmitype/StillImage" />
      </cc:Work>
    </rdf:RDF>
  </metadata>
  <defs
     id="defs12" />
  <sodipodi:namedview
     pagecolor="#ffffff"
     bordercolor="#666666"
     borderopacity="1"
     objecttolerance="10"
     gridtolerance="10"
     guidetolerance="10"
     inkscape:pageopacity="0"
     inkscape:pageshadow="2"
     inkscape:window-width="640"
     inkscape:window-height="480"
     id="namedview10"
     showgrid="false"
     inkscape:zoom="14.75"
     inkscape:cx="8"
     inkscape:cy="8"
     inkscape:window-x="65"
     inkscape:window-y="24"
     inkscape:window-maximized="0"
     inkscape:current-layer="svg2" />
  <path
     style="fill:#353535;fill-opacity:1"
     d="M 1.5996094 0 C 0.71320937 2.9605947e-16 0 0.71320937 0 1.5996094 L 0 14.400391 C 2.9605947e-16 15.286791 0.71320937 16 1.5996094 16 L 14.400391 16 C 15.286791 16 16 15.286791 16 14.400391 L 16 1.5996094 C 16 0.71320937 15.286791 0 14.400391 0 L 1.5996094 0 z M 5.0175781 4.7246094 C 5.2515781 4.7246094 5.46425 4.7395312 5.65625 4.7695312 C 5.84825 4.7995313 6.0161562 4.8387187 6.1601562 4.8867188 C 6.3041563 4.9287188 6.4272969 4.9734844 6.5292969 5.0214844 C 6.6312969 5.0634844 6.7096719 5.1026719 6.7636719 5.1386719 L 6.5664062 5.6699219 C 6.4164063 5.5799219 6.2242344 5.4922031 5.9902344 5.4082031 C 5.7622344 5.3182031 5.4767656 5.2734375 5.1347656 5.2734375 C 4.7447656 5.2734375 4.403375 5.3387031 4.109375 5.4707031 C 3.821375 5.6027031 3.5769062 5.7892969 3.3789062 6.0292969 C 3.1809062 6.2692969 3.0316875 6.5547656 2.9296875 6.8847656 C 2.8336875 7.2147656 2.7851562 7.5804219 2.7851562 7.9824219 C 2.7851562 8.3964219 2.8336875 8.7714219 2.9296875 9.1074219 C 3.0316875 9.4374219 3.1790938 9.719125 3.3710938 9.953125 C 3.5630938 10.187125 3.7962656 10.366188 4.0722656 10.492188 C 4.3542656 10.618187 4.6751562 10.681641 5.0351562 10.681641 C 5.4311562 10.681641 5.7613906 10.646219 6.0253906 10.574219 C 6.2953906 10.496219 6.5006719 10.417844 6.6386719 10.339844 L 6.8085938 10.861328 C 6.7665937 10.891328 6.69575 10.928703 6.59375 10.970703 C 6.49175 11.006703 6.3610781 11.045891 6.2050781 11.087891 C 6.0490781 11.129891 5.8700156 11.161547 5.6660156 11.185547 C 5.4620156 11.215547 5.2344219 11.230469 4.9824219 11.230469 C 4.5804219 11.230469 4.2054219 11.159625 3.8574219 11.015625 C 3.5154219 10.871625 3.2150313 10.660766 2.9570312 10.384766 C 2.7050313 10.108765 2.5035156 9.7691875 2.3535156 9.3671875 C 2.2095156 8.9591875 2.1386719 8.4946562 2.1386719 7.9726562 C 2.1386719 7.4506563 2.2150938 6.9898906 2.3710938 6.5878906 C 2.5330937 6.1798906 2.7477188 5.8365469 3.0117188 5.5605469 C 3.2757188 5.2845469 3.5816875 5.0774531 3.9296875 4.9394531 C 4.2776875 4.7954531 4.6395781 4.7246094 5.0175781 4.7246094 z M 9.0976562 6.3359375 C 9.4156563 6.3359375 9.6768594 6.3620156 9.8808594 6.4160156 C 10.09086 6.4700156 10.238266 6.5185469 10.322266 6.5605469 L 10.1875 7.0820312 C 10.1155 7.0460313 9.9923595 6.9975 9.8183594 6.9375 C 9.6503594 6.8775 9.4003125 6.8476563 9.0703125 6.8476562 C 8.9383125 6.8476562 8.8133594 6.8625781 8.6933594 6.8925781 C 8.5793594 6.9165781 8.4767188 6.9595312 8.3867188 7.0195312 C 8.2967188 7.0735312 8.225875 7.144375 8.171875 7.234375 C 8.117875 7.318375 8.0898438 7.4247813 8.0898438 7.5507812 C 8.0898438 7.6767812 8.1141094 7.7830469 8.1621094 7.8730469 C 8.2101094 7.9630469 8.2791406 8.0451875 8.3691406 8.1171875 C 8.4651406 8.1831875 8.5789375 8.2466406 8.7109375 8.3066406 C 8.8489375 8.3666406 9.0056875 8.4319062 9.1796875 8.5039062 C 9.3596875 8.5759062 9.5294063 8.6505156 9.6914062 8.7285156 C 9.8594062 8.8005156 10.006812 8.8900469 10.132812 8.9980469 C 10.258813 9.1000469 10.361453 9.2269531 10.439453 9.3769531 C 10.517453 9.5209531 10.556641 9.7037813 10.556641 9.9257812 C 10.556641 10.345781 10.398078 10.664859 10.080078 10.880859 C 9.768078 11.096859 9.3389687 11.203125 8.7929688 11.203125 C 8.3849688 11.203125 8.0714687 11.167703 7.8554688 11.095703 C 7.6394687 11.029703 7.4958281 10.979359 7.4238281 10.943359 L 7.578125 10.412109 C 7.596125 10.424109 7.6333594 10.444609 7.6933594 10.474609 C 7.7533594 10.498609 7.8355 10.528453 7.9375 10.564453 C 8.0395 10.594453 8.158875 10.622484 8.296875 10.646484 C 8.440875 10.670484 8.6069688 10.681641 8.7929688 10.681641 C 9.1289688 10.681641 9.4050937 10.627531 9.6210938 10.519531 C 9.8430937 10.405531 9.953125 10.217125 9.953125 9.953125 C 9.953125 9.827125 9.932625 9.7189063 9.890625 9.6289062 C 9.854625 9.5389062 9.7911719 9.4587188 9.7011719 9.3867188 C 9.6111719 9.3147187 9.4917969 9.2456875 9.3417969 9.1796875 C 9.1977969 9.1136875 9.0167812 9.0353125 8.8007812 8.9453125 C 8.6267813 8.8733125 8.4626406 8.8005156 8.3066406 8.7285156 C 8.1506406 8.6505156 8.0125781 8.56475 7.8925781 8.46875 C 7.7725781 8.36675 7.6755156 8.2454219 7.6035156 8.1074219 C 7.5315156 7.9694219 7.4960937 7.8015156 7.4960938 7.6035156 C 7.4960938 7.2255156 7.6379219 6.9195469 7.9199219 6.6855469 C 8.2079219 6.4515469 8.5996562 6.3359375 9.0976562 6.3359375 z M 13.59375 8.8242188 L 13.617188 9.1464844 C 13.379288 9.1620844 13.157878 9.1993125 12.955078 9.2578125 C 12.756178 9.3124125 12.579828 9.4005844 12.423828 9.5214844 C 12.267828 9.6384843 12.13655 9.7893625 12.03125 9.9765625 C 11.92595 10.163763 11.853453 10.394969 11.814453 10.667969 C 11.919753 10.613369 12.047112 10.566344 12.195312 10.527344 C 12.343513 10.484444 12.500269 10.462891 12.667969 10.462891 C 12.886369 10.462891 13.072509 10.498159 13.224609 10.568359 C 13.376709 10.634659 13.50015 10.722838 13.59375 10.835938 C 13.68735 10.949038 13.753975 11.080316 13.796875 11.228516 C 13.839775 11.376716 13.861328 11.533466 13.861328 11.697266 C 13.861328 11.849366 13.837816 12.000244 13.791016 12.152344 C 13.744216 12.304444 13.671713 12.443559 13.570312 12.568359 C 13.472813 12.689259 13.347413 12.789187 13.195312 12.867188 C 13.047112 12.945188 12.868809 12.984375 12.662109 12.984375 C 12.237009 12.984375 11.913706 12.835463 11.691406 12.539062 C 11.473006 12.238762 11.363281 11.821409 11.363281 11.287109 C 11.363281 10.495409 11.553341 9.8958281 11.931641 9.4863281 C 12.313841 9.0768281 12.86835 8.8554188 13.59375 8.8242188 z M 12.632812 10.794922 C 12.453412 10.794922 12.296656 10.816475 12.160156 10.859375 C 12.027556 10.898375 11.902156 10.9454 11.785156 11 C 11.777356 11.0663 11.773437 11.119203 11.773438 11.158203 L 11.773438 11.292969 C 11.773438 11.476269 11.785194 11.650653 11.808594 11.814453 C 11.835894 11.978253 11.882919 12.121294 11.949219 12.246094 C 12.019419 12.370894 12.111509 12.470822 12.224609 12.544922 C 12.337709 12.615122 12.48075 12.650391 12.65625 12.650391 C 12.80055 12.650391 12.923991 12.624919 13.025391 12.574219 C 13.126791 12.519619 13.209084 12.449081 13.271484 12.363281 C 13.333884 12.277481 13.37895 12.177553 13.40625 12.064453 C 13.43745 11.951353 13.453125 11.833784 13.453125 11.708984 C 13.453125 11.396984 13.382587 11.165778 13.242188 11.017578 C 13.105687 10.869378 12.901913 10.794922 12.632812 10.794922 z "
     id="path4" />
</svg>

<svg xmlns="http://www.w3.org/2000/svg" viewBox="0 0 16 16">
 <path d="m 1.6 0 c -0.886 0 -1.6 0.713 -1.6 1.6 l 0 12.801 c 0 0.886 0.713 1.6 1.6 1.6 l 12.801 0 c 0.886 0 1.6 -0.713 1.6 -1.6 l 0 -12.801 c 0 -0.886 -0.713 -1.6 -1.6 -1.6 l -12.801 0 z m 3.418 4.725 c 0.234 0 0.447 0.015 0.639 0.045 c 0.192 0.03 0.36 0.069 0.504 0.117 c 0.144 0.042 0.267 0.087 0.369 0.135 c 0.102 0.042 0.18 0.081 0.234 0.117 l -0.197 0.531 c -0.15 -0.09 -0.342 -0.178 -0.576 -0.262 c -0.228 -0.09 -0.513 -0.135 -0.855 -0.135 c -0.39 0 -0.731 0.065 -1.025 0.197 c -0.288 0.132 -0.532 0.319 -0.73 0.559 c -0.198 0.24 -0.347 0.525 -0.449 0.855 c -0.096 0.33 -0.145 0.696 -0.145 1.098 c 0 0.414 0.049 0.789 0.145 1.125 c 0.102 0.33 0.249 0.612 0.441 0.846 c 0.192 0.234 0.425 0.413 0.701 0.539 c 0.282 0.126 0.603 0.189 0.963 0.189 c 0.396 0 0.726 -0.035 0.99 -0.107 c 0.27 -0.078 0.475 -0.156 0.613 -0.234 l 0.17 0.521 c -0.042 0.03 -0.113 0.067 -0.215 0.109 c -0.102 0.036 -0.233 0.075 -0.389 0.117 c -0.156 0.042 -0.335 0.074 -0.539 0.098 c -0.204 0.03 -0.432 0.045 -0.684 0.045 c -0.402 0 -0.777 -0.071 -1.125 -0.215 c -0.342 -0.144 -0.642 -0.355 -0.9 -0.631 c -0.252 -0.276 -0.454 -0.616 -0.604 -1.018 c -0.144 -0.408 -0.215 -0.873 -0.215 -1.395 c 0 -0.522 0.076 -0.983 0.232 -1.385 c 0.162 -0.408 0.377 -0.751 0.641 -1.027 c 0.264 -0.276 0.57 -0.483 0.918 -0.621 c 0.348 -0.144 0.71 -0.215 1.088 -0.215 z m 4.08 1.611 c 0.318 0 0.579 0.026 0.783 0.08 c 0.21 0.054 0.357 0.103 0.441 0.145 l -0.135 0.521 c -0.072 -0.036 -0.195 -0.085 -0.369 -0.145 c -0.168 -0.06 -0.418 -0.09 -0.748 -0.09 c -0.132 0 -0.257 0.015 -0.377 0.045 c -0.114 0.024 -0.217 0.067 -0.307 0.127 c -0.09 0.054 -0.161 0.125 -0.215 0.215 c -0.054 0.084 -0.082 0.19 -0.082 0.316 c 0 0.126 0.024 0.232 0.072 0.322 c 0.048 0.09 0.117 0.172 0.207 0.244 c 0.096 0.066 0.21 0.129 0.342 0.189 c 0.138 0.06 0.295 0.125 0.469 0.197 c 0.18 0.072 0.35 0.147 0.512 0.225 c 0.168 0.072 0.315 0.162 0.441 0.27 c 0.126 0.102 0.229 0.229 0.307 0.379 c 0.078 0.144 0.117 0.327 0.117 0.549 c 0 0.42 -0.159 0.739 -0.477 0.955 c -0.312 0.216 -0.741 0.322 -1.287 0.322 c -0.408 0 -0.722 -0.035 -0.938 -0.107 c -0.216 -0.066 -0.36 -0.116 -0.432 -0.152 l 0.154 -0.531 c 0.018 0.012 0.055 0.033 0.115 0.063 c 0.06 0.024 0.142 0.054 0.244 0.09 c 0.102 0.03 0.221 0.058 0.359 0.082 c 0.144 0.024 0.31 0.035 0.496 0.035 c 0.336 0 0.612 -0.054 0.828 -0.162 c 0.222 -0.114 0.332 -0.302 0.332 -0.566 c 0 -0.126 -0.021 -0.234 -0.063 -0.324 c -0.036 -0.09 -0.099 -0.17 -0.189 -0.242 c -0.09 -0.072 -0.209 -0.141 -0.359 -0.207 c -0.144 -0.066 -0.325 -0.144 -0.541 -0.234 c -0.174 -0.072 -0.338 -0.145 -0.494 -0.217 c -0.156 -0.078 -0.294 -0.164 -0.414 -0.26 c -0.12 -0.102 -0.217 -0.223 -0.289 -0.361 c -0.072 -0.138 -0.107 -0.306 -0.107 -0.504 c 0 -0.378 0.142 -0.684 0.424 -0.918 c 0.288 -0.234 0.68 -0.35 1.178 -0.35 z m 4.496 2.488 l 0.023 0.322 c -0.238 0.016 -0.459 0.053 -0.662 0.111 c -0.199 0.055 -0.375 0.143 -0.531 0.264 c -0.156 0.117 -0.287 0.268 -0.393 0.455 c -0.105 0.187 -0.178 0.418 -0.217 0.691 c 0.105 -0.055 0.233 -0.102 0.381 -0.141 c 0.148 -0.043 0.305 -0.064 0.473 -0.064 c 0.218 0 0.405 0.035 0.557 0.105 c 0.152 0.066 0.276 0.154 0.369 0.268 c 0.094 0.113 0.16 0.244 0.203 0.393 c 0.043 0.148 0.064 0.305 0.064 0.469 c 0 0.152 -0.024 0.303 -0.07 0.455 c -0.047 0.152 -0.119 0.291 -0.221 0.416 c -0.097 0.121 -0.223 0.221 -0.375 0.299 c -0.148 0.078 -0.327 0.117 -0.533 0.117 c -0.425 0 -0.748 -0.149 -0.971 -0.445 c -0.218 -0.3 -0.328 -0.718 -0.328 -1.252 c 0 -0.792 0.19 -1.391 0.568 -1.801 c 0.382 -0.409 0.937 -0.631 1.662 -0.662 z m -0.961 1.971 c -0.179 0 -0.336 0.022 -0.473 0.064 c -0.133 0.039 -0.258 0.086 -0.375 0.141 c -0.008 0.066 -0.012 0.119 -0.012 0.158 l 0 0.135 c 0 0.183 0.012 0.358 0.035 0.521 c 0.027 0.164 0.074 0.307 0.141 0.432 c 0.07 0.125 0.162 0.225 0.275 0.299 c 0.113 0.07 0.256 0.105 0.432 0.105 c 0.144 0 0.268 -0.025 0.369 -0.076 c 0.101 -0.055 0.184 -0.125 0.246 -0.211 c 0.062 -0.086 0.107 -0.186 0.135 -0.299 c 0.031 -0.113 0.047 -0.231 0.047 -0.355 c 0 -0.312 -0.071 -0.543 -0.211 -0.691 c -0.137 -0.148 -0.34 -0.223 -0.609 -0.223 z" style="fill:#353535;fill-opacity:1"/>
</svg>
